X:145
T: Blacksmith
T: R\'il an Ghabha
S: "Ceol Rince na hEireann" 1/73
Z: B.Black
L: 1/8
M: 4/4
R: reel
K: G
dB B2 dBGB|dB B2 ABcA|dB B2 dB (3GAB|cABG ABcA :|
G2 BG DGBG|G2 BG ABcA|G2 BG DGBG|cABG ABcA :|
